svgs/valtechlogo.svg

<svg height="66" viewBox="0 0 321 66" width="321" xmlns="http://www.w3.org/2000/svg" xmlns:xlink="http://www.w3.org/1999/xlink"><mask id="a" fill="#fff"><path d="m92.3377949 49.8352939h-92.29341702v-49.75313975h92.29341702z" fill="#fff" fill-rule="evenodd"/></mask><mask id="b" fill="#fff"><path d="m.69525346 61.5716009h124.12197254v-61.32953957h-124.12197254z" fill="#fff" fill-rule="evenodd"/></mask><g fill="#06457f" fill-rule="evenodd"><g transform="translate(0 15.403903)"><path d="m30.4410069 48.6293883h-13.237182l-17.2038249-47.29878449h14.053735l9.9081014 34.85756549h.1856475l10.1714101-34.85756549h13.4228295z" mask="url(#a)"/><path d="m89.5405092 39.3951152c0 5.5960179 1.2625507 6.8349318 2.7972857 7.377736v1.8543365h-13.6151336c-.7107857-2.2130274-.8964332-2.9267415-1.1627005-5.5828145-2.8793848 2.9355438-6.9384815 6.8349318-15.4908387 6.8349318-7.1966129 0-14.5958848-3.9881438-14.5958848-13.7798915 0-9.2540781 5.9429378-13.9574032 13.9649793-15.1222317l11.3437258-1.6863606c1.9873894-.2787373 4.4133802-1.0658034 4.4133802-3.7446155 0-5.2380605-5.0398479-5.5182648-8.2779539-5.5182648-6.3060968 0-7.3985323 3.8216349-7.7395023 6.595071h-12.1632374c1.4371037-14.50240792 11.6085139-16.54085775 21.4300784-16.54085775 6.7506152 0 19.0958018 2.03844983 19.0958018 13.70067145zm-12.3451866-13.7784245c-1.2544148.9711794-3.3312996 1.7619131-8.5516175 2.5621826-4.6855645.8024699-8.5553157 1.9643643-8.5553157 7.1158696 0 4.3725079 3.418576 5.6979771 5.8467857 5.6979771 5.5923525 0 11.2601475-3.5539005 11.2601475-9.3391663z" mask="url(#a)"/></g><path d="m97.1076774 64.0310908h12.6181106v-63.8513786h-12.6181106z"/><g transform="translate(113.903226 3.667596)"><path d="m19.7747834 13.0676444h7.8489678v8.8785163h-7.8489678v25.7127817c0 2.7580322.1065069 3.8165004 5.2314125 3.8165004.808417 0 1.7041106-.074819 2.6175553-.1672424v9.4264551c-1.9940461.0806871-3.9673825.1760446-5.9577305.1760446h-1.6175737c-10.89846774 0-12.88215898-4.0783667-12.88215898-10.2274581v-28.7370813h-6.47103456v-8.8785163h6.47103456v-12.82558307h12.60849538z" mask="url(#b)"/><path d="m76.7929631 46.4882458c-3.3187258 11.3908195-12.8836382 15.1273663-21.0743156 15.1273663-13.5071475 0-23.8671636-6.4028891-23.8671636-25.8785571 0-5.6921089 1.9725967-23.9185938 22.9699908-23.9185938 9.4495299 0 22.5136382 4.4377911 22.5136382 26.064871v2.2159614h-32.8758733c.3661175 3.5487659 1.0909563 11.5441251 11.2594079 11.5441251 3.5184262 0 7.1182119-1.7648472 8.1085783-5.1551729zm-12.420629-14.4965398c-.7204009-7.6381353-5.6766705-9.9472537-9.7268917-9.9472537-5.9518134 0-9.0952465 3.7372802-9.8200853 9.9472537z" mask="url(#b)"/><path d="m124.732908 43.1096564c-.454873 4.9035758-4.3335 18.5059557-21.905661 18.5059557-18.0026272 0-22.1556571-13.6023799-22.1556571-23.5731063 0-15.2843394 6.7683663-26.2240446 22.9692511-26.2240446 7.567168 0 20.00259 3.3602514 21.176385 18.1428637h-12.793403c-.552505-3.0235661-2.335756-7.6491381-7.749118-7.6491381h-.633864c-7.9236705 0-10.0005553 7.8288503-10.0005553 13.6962703 0 5.1507718.1812097 15.3951008 9.7313293 15.3951008 6.402249 0 8.556795-6.0471322 8.556795-8.2939015z" mask="url(#b)"/></g><path d="m287.630053 64.0332913h-12.608495v-28.7180098c0-3.475414-.179731-9.3406334-8.194376-9.3406334-5.584956 0-9.9118 3.7336127-9.9118 10.9360376v27.1226056h-12.611453v-63.85211206h12.611453v22.68334746h.173074c1.628668-3.919193 7.027977-7.3784695 13.88288-7.3784695 9.368171 0 16.658717 5.4229073 16.658717 15.8190748z"/><path d="m295.472364 64.0310908h25.224387v-8.885118h-25.224387z"/></g></svg>

<?xml version="1.0" encoding="UTF-8"?>
<svg width="321px" height="66px" viewBox="0 0 321 66" version="1.1" xmlns="http://www.w3.org/2000/svg" xmlns:xlink="http://www.w3.org/1999/xlink">
    <!-- Generator: Sketch 41.2 (35397) - http://www.bohemiancoding.com/sketch -->
    <title>valtechlogo</title>
    <desc>Created with Sketch.</desc>
    <defs>
        <polygon id="path-1" points="92.3377949 49.8352939 0.0443778802 49.8352939 0.0443778802 0.0821541494 92.3377949 0.0821541494"></polygon>
        <polygon id="path-3" points="0.695253456 61.5716009 124.817226 61.5716009 124.817226 0.242061333 0.695253456 0.242061333"></polygon>
    </defs>
    <g id="Page-1" stroke="none" stroke-width="1" fill="none" fill-rule="evenodd">
        <g id="Desktop-HD" transform="translate(-560.000000, -1830.000000)">
            <g id="valtechlogo" transform="translate(560.000000, 1830.000000)">
                <g id="Group-4" transform="translate(0.000000, 15.403903)">
                    <mask id="mask-2" fill="white">
                        <use xlink:href="#path-1"></use>
                    </mask>
                    <g id="Clip-2"></g>
                    <polyline id="Fill-1" fill="#06457F" mask="url(#mask-2)" points="30.4410069 48.6293883 17.2038249 48.6293883 0 1.33060381 14.053735 1.33060381 23.9618364 36.1881693 24.1474839 36.1881693 34.318894 1.33060381 47.7417235 1.33060381 30.4410069 48.6293883"></polyline>
                    <path d="M89.5405092,39.3951152 C89.5405092,44.9911331 90.8030599,46.230047 92.3377949,46.7728512 L92.3377949,48.6271877 L78.7226613,48.6271877 C78.0118756,46.4141603 77.8262281,45.7004462 77.5599608,43.0443732 C74.680576,45.979917 70.6214793,49.879305 62.0691221,49.879305 C54.8725092,49.879305 47.4732373,45.8911612 47.4732373,36.0994135 C47.4732373,26.8453354 53.4161751,22.1420103 61.4382166,20.9771818 L72.7819424,19.2908212 C74.7693318,19.0120839 77.1953226,18.2250178 77.1953226,15.5462057 C77.1953226,10.3081452 72.1554747,10.0279409 68.9173687,10.0279409 C62.6112719,10.0279409 61.5188364,13.8495758 61.1778664,16.6230119 L49.014629,16.6230119 C50.4517327,2.12060398 60.6231429,0.0821541494 70.4447074,0.0821541494 C77.1953226,0.0821541494 89.5405092,2.12060398 89.5405092,13.7828256 L89.5405092,39.3951152 Z M77.1953226,25.6166907 C75.9409078,26.5878701 73.864023,27.3786038 68.6437051,28.1788733 C63.9581406,28.9813432 60.0883894,30.1432376 60.0883894,35.2947429 C60.0883894,39.6672508 63.5069654,40.99272 65.9351751,40.99272 C71.5275276,40.99272 77.1953226,37.4388195 77.1953226,31.6535537 L77.1953226,25.6166907 L77.1953226,25.6166907 Z" id="Fill-3" fill="#06457F" mask="url(#mask-2)"></path>
                </g>
                <polygon id="Fill-5" fill="#06457F" points="97.1076774 64.0310908 109.725788 64.0310908 109.725788 0.179712202 97.1076774 0.179712202"></polygon>
                <g id="Group-10" transform="translate(113.903226, 3.667596)">
                    <mask id="mask-4" fill="white">
                        <use xlink:href="#path-3"></use>
                    </mask>
                    <g id="Clip-7"></g>
                    <path d="M19.7747834,13.0676444 L27.6237512,13.0676444 L27.6237512,21.9461607 L19.7747834,21.9461607 L19.7747834,47.6589424 C19.7747834,50.4169746 19.8812903,51.4754428 25.0061959,51.4754428 C25.8146129,51.4754428 26.7103065,51.4006238 27.6237512,51.3082004 L27.6237512,60.7346555 C25.6297051,60.8153426 23.6563687,60.9107001 21.6660207,60.9107001 L20.048447,60.9107001 C9.14997926,60.9107001 7.16628802,56.8323334 7.16628802,50.683242 L7.16628802,21.9461607 L0.695253456,21.9461607 L0.695253456,13.0676444 L7.16628802,13.0676444 L7.16628802,0.242061333 L19.7747834,0.242061333 L19.7747834,13.0676444" id="Fill-6" fill="#06457F" mask="url(#mask-4)"></path>
                    <path d="M76.7929631,46.4882458 C73.4742373,57.8790653 63.9093249,61.6156121 55.7186475,61.6156121 C42.2115,61.6156121 31.8514839,55.212723 31.8514839,35.737055 C31.8514839,30.0449461 33.8240806,11.8184612 54.8214747,11.8184612 C64.2710046,11.8184612 77.3351129,16.2562523 77.3351129,37.8833322 L77.3351129,40.0992936 L44.4592396,40.0992936 C44.8253571,43.6480595 45.5501959,51.6434187 55.7186475,51.6434187 C59.2370737,51.6434187 62.8368594,49.8785715 63.8272258,46.4882458 L76.7929631,46.4882458 Z M64.3723341,31.991706 C63.6519332,24.3535707 58.6956636,22.0444523 54.6454424,22.0444523 C48.693629,22.0444523 45.5501959,25.7817325 44.8253571,31.991706 L64.3723341,31.991706 L64.3723341,31.991706 Z" id="Fill-8" fill="#06457F" mask="url(#mask-4)"></path>
                    <path d="M124.732908,43.1096564 C124.278035,48.0132322 120.399408,61.6156121 102.827247,61.6156121 C84.8246198,61.6156121 80.6715899,48.0132322 80.6715899,38.0425058 C80.6715899,22.7581664 87.4399562,11.8184612 103.640841,11.8184612 C111.208009,11.8184612 123.643431,15.1787126 124.817226,29.9613249 L112.023823,29.9613249 C111.471318,26.9377588 109.688067,22.3121868 104.274705,22.3121868 L103.640841,22.3121868 C95.7171705,22.3121868 93.6402857,30.1410371 93.6402857,36.0084571 C93.6402857,41.1592289 93.8214954,51.4035579 103.371615,51.4035579 C109.773864,51.4035579 111.92841,45.3564257 111.92841,43.1096564 L124.732908,43.1096564" id="Fill-9" fill="#06457F" mask="url(#mask-4)"></path>
                </g>
                <path d="M287.630053,64.0332913 L275.021558,64.0332913 L275.021558,35.3152815 C275.021558,31.8398675 274.841827,25.9746481 266.827182,25.9746481 C261.242226,25.9746481 256.915382,29.7082608 256.915382,36.9106857 L256.915382,64.0332913 L244.303929,64.0332913 L244.303929,0.18117924 L256.915382,0.18117924 L256.915382,22.8645267 L257.088456,22.8645267 C258.717124,18.9453337 264.116433,15.4860572 270.971336,15.4860572 C280.339507,15.4860572 287.630053,20.9089645 287.630053,31.305132 L287.630053,64.0332913" id="Fill-11" fill="#06457F"></path>
                <polygon id="Fill-12" fill="#06457F" points="295.472364 64.0310908 320.696751 64.0310908 320.696751 55.1459728 295.472364 55.1459728"></polygon>
            </g>
        </g>
    </g>
</svg>
